ui/StatusQ/src/assets/img/icons/emojiCategories/symbols.svg

<svg fill="none" height="17" viewBox="0 0 20 17" width="20" xmlns="http://www.w3.org/2000/svg"><path clip-rule="evenodd" d="m10.3664 4.56842c-.1998.23767-.56559.23767-.7654 0l-1.4276-1.69813c-1.7819-2.119579-5.1195-1.63656-6.25252.90486-.74575 1.67277-.47027 3.6137.70569 4.94862.69232.7859 1.38003 1.54583 1.89395 2.06983.68985.7034 2.22555 1.9148 3.68169 3.0101.54329.4086 1.0587.7887 1.48801 1.1022.1749.1277.41208.1277.58698 0 .4293-.3135.9448-.6936 1.488-1.1022 1.4562-1.0953 2.9919-2.3067 3.6817-3.0101.6861-.6994 1.3596-1.43113 1.9681-2.11506 1.1434-1.28523 1.401-3.17749.6621-4.8349-1.1472-2.57335-4.5268-3.062434-6.3311-.91622zm-1.38969-3.06753c-2.5624-2.53766-6.90815-1.769074-8.427373 1.63863-.984633 2.20859-.633606 4.80575.956383 6.61067.69555.78961 1.40556 1.57501 1.94948 2.12961 1.34197 1.3682 5.16448 4.1418 6.2424 4.9156.17268.124.3996.124.5723 0 1.0779-.7738 4.9004-3.5474 6.2424-4.9156.7077-.7216 1.3985-1.4723 2.0186-2.16924 1.5751-1.7705 1.8879-4.32643.9178-6.50255-1.5231-3.416378-5.862-4.20374-8.4534-1.70172-.1361.13139-.2674.27184-.3932.42146l-.2357.28036c-.1998.23767-.56559.23767-.7654 0l-.28372-.33748c-.10948-.13023-.22315-.25346-.34057-.36974z" fill="#939ba1" fill-rule="evenodd"/></svg>

<svg width="20" height="17" viewBox="0 0 20 17" fill="none" xmlns="http://www.w3.org/2000/svg">
<path fill-rule="evenodd" clip-rule="evenodd" d="M10.3664 4.56842C10.1666 4.80609 9.80081 4.80609 9.601 4.56842L8.1734 2.87029C6.3915 0.750711 3.0539 1.23373 1.92088 3.77515C1.17513 5.44792 1.45061 7.38885 2.62657 8.72377C3.31889 9.50967 4.0066 10.2696 4.52052 10.7936C5.21037 11.497 6.74607 12.7084 8.20221 13.8037C8.7455 14.2123 9.26091 14.5924 9.69022 14.9059C9.86512 15.0336 10.1023 15.0336 10.2772 14.9059C10.7065 14.5924 11.222 14.2123 11.7652 13.8037C13.2214 12.7084 14.7571 11.497 15.4469 10.7936C16.133 10.0942 16.8065 9.36247 17.415 8.67854C18.5584 7.39331 18.816 5.50105 18.0771 3.84364C16.9299 1.27029 13.5503 0.781206 11.746 2.92742L10.3664 4.56842ZM8.97671 1.50089C6.41431 -1.03677 2.06856 -0.268184 0.549337 3.13952C-0.435296 5.34811 -0.084269 7.94527 1.50572 9.75019C2.20127 10.5398 2.91128 11.3252 3.4552 11.8798C4.79717 13.248 8.61968 16.0216 9.6976 16.7954C9.87028 16.9194 10.0972 16.9194 10.2699 16.7954C11.3478 16.0216 15.1703 13.248 16.5123 11.8798C17.22 11.1582 17.9108 10.4075 18.5309 9.71056C20.106 7.94006 20.4188 5.38413 19.4487 3.20801C17.9256 -0.208368 13.5867 -0.99573 10.9953 1.50629C10.8592 1.63768 10.7279 1.77813 10.6021 1.92775L10.3664 2.20811C10.1666 2.44578 9.80081 2.44578 9.601 2.20811L9.31728 1.87063C9.2078 1.7404 9.09413 1.61717 8.97671 1.50089Z" fill="#939BA1"/>
</svg>
